packages/katcn/src/icons/svg/minimize-solid.svg

<svg width="24" height="24" viewBox="0 0 24 24" fill="none" xmlns="http://www.w3.org/2000/svg">
<path d="M20.1633 13H17.8673C15.2041 13 13 15.2268 13 17.9175V20.1443C13 21.1649 13.8265 22 14.8367 22C15.8469 22 16.6735 21.1649 16.6735 20.1443V17.8247C16.6735 17.1753 17.2245 16.6186 17.8673 16.6186H20.1633C21.1735 16.6186 22 15.7835 22 14.7629C22 13.7423 21.1735 13 20.1633 13Z" fill="black"/>
<path d="M6.13265 13H3.83673C2.82653 13 2 13.8351 2 14.8557C2 15.8763 2.82653 16.7113 3.83673 16.7113H6.13265C6.77551 16.7113 7.32653 17.268 7.32653 17.9175V20.1443C7.32653 21.1649 8.15306 22 9.16327 22C10.1735 22 11 21.1649 11 20.1443V17.8247C10.9082 15.134 8.79592 13 6.13265 13Z" fill="black"/>
<path d="M9.07143 2C8.06122 2 7.23469 2.82653 7.23469 3.83673V6.13265C7.23469 6.77551 6.68367 7.32653 6.04082 7.32653H3.83673C2.82653 7.32653 2 8.15306 2 9.16327C2 10.1735 2.82653 11 3.83673 11H6.13265C8.79592 11 11 8.79592 11 6.13265V3.83673C10.9082 2.82653 10.0816 2 9.07143 2Z" fill="black"/>
<path d="M17.8673 11H20.1633C21.1735 11 22 10.1649 22 9.14433C22 8.12371 21.1735 7.28866 20.1633 7.28866H17.8673C17.2245 7.28866 16.6735 6.73196 16.6735 6.08247V3.85567C16.6735 2.83505 15.8469 2 14.8367 2C13.8265 2 13 2.83505 13 3.85567V6.17526C13.0918 8.86598 15.2041 11 17.8673 11Z" fill="black"/>
</svg>

<svg xmlns="http://www.w3.org/2000/svg" fill="none" viewBox="0 0 24 24"><path fill="#000" d="M20.163 13h-2.296C15.204 13 13 15.227 13 17.918v2.226c0 1.02.826 1.856 1.837 1.856 1.01 0 1.837-.835 1.837-1.856v-2.32c0-.649.55-1.205 1.193-1.205h2.296c1.01 0 1.837-.835 1.837-1.856 0-1.02-.826-1.763-1.837-1.763m-14.03 0H3.837C2.827 13 2 13.835 2 14.856c0 1.02.827 1.855 1.837 1.855h2.296c.643 0 1.194.557 1.194 1.207v2.226c0 1.02.826 1.856 1.836 1.856S11 21.165 11 20.144v-2.32C10.908 15.135 8.796 13 6.133 13M9.071 2c-1.01 0-1.836.827-1.836 1.837v2.296c0 .643-.551 1.194-1.194 1.194H3.837C2.827 7.327 2 8.153 2 9.163S2.827 11 3.837 11h2.296C8.796 11 11 8.796 11 6.133V3.837C10.908 2.827 10.082 2 9.071 2m8.796 9h2.296C21.173 11 22 10.165 22 9.144c0-1.02-.826-1.855-1.837-1.855h-2.296c-.643 0-1.194-.557-1.194-1.207V3.856c0-1.021-.826-1.856-1.836-1.856S13 2.835 13 3.856v2.32C13.092 8.865 15.204 11 17.867 11"/></svg>
